X:4
T:Donkey Ride
T:Dance: Northern Star
R:hornpipe
H:Tune is the same as used for the Bledington-style dance
H:composed by the Binghamton Morris Men
M:4/4
L:1/4
K:G
E G B B/B/ | c A B B/B/ |1 B A A G/A/ | B A A F :|2 B G A F | E D E2 |]
e e d B | c A B2 | B A A G/A/ | B A A2 |
e e d B | c A B2 | B G A F | E D E2 :|
